src/img/icons/document.svg

<svg width="32" height="32" viewBox="0 0 32 32" fill="none" xmlns="http://www.w3.org/2000/svg">
<path d="M7.30484 30C6.67165 30 6.12921 29.7742 5.67753 29.3225C5.22584 28.8708 5 28.3284 5 27.6952V4.30484C5 3.67165 5.22584 3.12921 5.67753 2.67753C6.12921 2.22584 6.67165 2 7.30484 2H18.7893C19.1051 2 19.4054 2.06239 19.6901 2.18716C19.9745 2.31193 20.2224 2.47686 20.4339 2.68195L26.4233 8.67137C26.6284 8.88284 26.7933 9.13079 26.9181 9.41521C27.0429 9.69988 27.1053 10.0001 27.1053 10.316V27.6952C27.1053 28.3284 26.8794 28.8708 26.4277 29.3225C25.9761 29.7742 25.4336 30 24.8004 30H7.30484ZM18.8169 9.08105V3.85168H7.30484C7.19161 3.85168 7.08772 3.89884 6.99316 3.99316C6.89884 4.08772 6.85168 4.19161 6.85168 4.30484V27.6952C6.85168 27.8084 6.89884 27.9123 6.99316 28.0068C7.08772 28.1012 7.19161 28.1483 7.30484 28.1483H24.8004C24.9136 28.1483 25.0175 28.1012 25.1121 28.0068C25.2064 27.9123 25.2536 27.8084 25.2536 27.6952V10.2338H19.9693C19.6466 10.2338 19.3738 10.1225 19.1511 9.89968C18.9283 9.67667 18.8169 9.40379 18.8169 9.08105Z" fill="#131212"/>
</svg>

<svg xmlns="http://www.w3.org/2000/svg" viewBox="0 0 32 32">
  <path fill="currentColor" d="M7.305 30a2.219 2.219 0 0 1-1.627-.677A2.22 2.22 0 0 1 5 27.695V4.305c0-.633.226-1.176.678-1.627A2.22 2.22 0 0 1 7.305 2h11.484c.316 0 .616.062.901.187a2.5 2.5 0 0 1 .744.495l5.99 5.99c.204.21.37.459.494.743.125.285.187.585.187.901v17.38a2.22 2.22 0 0 1-.677 1.627A2.219 2.219 0 0 1 24.8 30H7.305ZM18.817 9.081v-5.23H7.305a.434.434 0 0 0-.312.142.434.434 0 0 0-.141.312v23.39c0 .113.047.217.141.312a.434.434 0 0 0 .312.141H24.8a.434.434 0 0 0 .312-.141.434.434 0 0 0 .142-.312V10.234h-5.285c-.322 0-.595-.111-.818-.334a1.114 1.114 0 0 1-.334-.819Z"/>
</svg>
